**kern	**kern
*staff2	*staff1
*clefF4	*clefG2
*k[b-e-a-]	*k[b-e-a-]
*M3/4	*M3/4
*c:	*c:
=-	=-
4r	([4b-
=142	=142
2.E- 2.G 2.B-	8b-L]
.	8ggJ
.	8ffL
.	8ee-J
.	8ddL
.	8ccJ)
=143	=143
2.E- 2.F 2.c	(4b-
.	4a-)
.	([4a-
=144	=144
[2.D [2.F [2.A- [2.B-	8a-L]
.	8aa-J
.	8ffL
.	8ddJ
.	8b-L
.	8a-J
=145	=145
4D] 4F] 4A-] 4B-]	8fL
.	8dJ
4r	8B-L
.	8AJ
4r	8A-L
.	8B-J
=146	=146
2.GG	8GL
.	8e-J
.	8B-L
.	8e-J
.	8BL
.	8e-J
=147	=147
2.AA-	8cL
.	8ccJ
.	8eL
.	8gJ
.	8fL
.	8a-J
=148	=148
2.BB-	8dL
.	8fJ
.	8A-L
.	8dJ
.	8A-L
.	8B-J
=149	=149
4EE-	4G) 4e-
4r	4r
=	=
*-	*-
